app/dist/common/images/escalade-incorporated.svg

<svg height="18" viewBox="0 0 18 18" width="18" xmlns="http://www.w3.org/2000/svg"><path d="m0 0h18v18h-18z" fill="#f0f3fa"/><path d="m11.97 15h-5.94s-.03-.05-.03-.15a6.48 6.48 0 0 1 .02-.85h5.94s.02.05.02.15a6.54 6.54 0 0 1 -.02.85z" fill="#c4c8c9"/><path d="m12 5.77v-1.54c0-.12-.1-.23-.22-.23h-4.84c-.6-.02-.95.52-.94.98v7.79c0 .12.1.23.22.23h5.56c.12 0 .22-.1.22-.23v-1.54c0-.12-.1-.23-.22-.23h-3.78v-2h2.79c.1 0 .21-.1.21-.23v-.54c0-.12-.1-.23-.21-.23h-2.79v-2h3.78c.12 0 .22-.1.22-.23z"/></svg>

<!-- by TradingView --><svg width="18" height="18" viewBox="0 0 18 18" xmlns="http://www.w3.org/2000/svg"><path fill="#F0F3FA" d="M0 0h18v18H0z"/><path d="M11.97 15H6.03S6 14.95 6 14.85a6.48 6.48 0 0 1 .02-.85h5.94s.02.05.02.15a6.54 6.54 0 0 1-.02.85Z" fill="#C4C8C9"/><path d="M12 5.77V4.23c0-.12-.1-.23-.22-.23H6.94c-.6-.02-.95.52-.94.98v7.79c0 .12.1.23.22.23h5.56c.12 0 .22-.1.22-.23v-1.54c0-.12-.1-.23-.22-.23H8V9h2.79c.1 0 .21-.1.21-.23v-.54c0-.12-.1-.23-.21-.23H8V6h3.78c.12 0 .22-.1.22-.23Z"/></svg>
